austria/municipalities/70729.svg

<?xml version="1.0" encoding="UTF-8"?>
<!DOCTYPE svg PUBLIC "-//W3C//DTD SVG 1.1//EN" "http://www.w3.org/Graphics/SVG/1.1/DTD/svg11.dtd">
<svg xmlns="http://www.w3.org/2000/svg" version="1.1" width="166px" height="192px" style="shape-rendering:geometricPrecision; text-rendering:geometricPrecision; image-rendering:optimizeQuality; fill-rule:evenodd; clip-rule:evenodd" xmlns:xlink="http://www.w3.org/1999/xlink">
<g><path style="opacity:1" fill="#040304" d="M -0.5,-0.5 C 54.8333,-0.5 110.167,-0.5 165.5,-0.5C 165.5,39.1667 165.5,78.8333 165.5,118.5C 157.496,159.171 133.163,183.504 92.5,191.5C 85.5,191.5 78.5,191.5 71.5,191.5C 30.4766,182.81 6.47657,157.81 -0.5,116.5C -0.5,77.5 -0.5,38.5 -0.5,-0.5 Z"/></g>
<g><path style="opacity:1" fill="#263166" d="M 128.5,22.5 C 128.156,37.0245 122.156,48.5245 110.5,57C 105.828,59.8365 100.828,61.8365 95.5,63C 76.0996,63.056 57.4329,66.7226 39.5,74C 24.5145,82.817 13.1811,94.9837 5.5,110.5C 3.5065,75.1823 2.83983,39.5156 3.5,3.5C 45.5,3.5 87.5,3.5 129.5,3.5C 129.1,9.82902 128.767,16.1624 128.5,22.5 Z"/></g>
<g><path style="opacity:1" fill="#fdfdfd" d="M 5.5,110.5 C 13.1811,94.9837 24.5145,82.817 39.5,74C 57.4329,66.7226 76.0996,63.056 95.5,63C 100.828,61.8365 105.828,59.8365 110.5,57C 122.156,48.5245 128.156,37.0245 128.5,22.5C 130.177,16.4157 130.844,10.0824 130.5,3.5C 140.833,3.5 151.167,3.5 161.5,3.5C 162.136,28.3031 155.636,50.9698 142,71.5C 130.614,83.9744 116.447,91.141 99.5,93C 52.9548,91.8881 27.4548,114.388 23,160.5C 10.0342,146.094 4.20089,129.427 5.5,110.5 Z"/></g>
<g><path style="opacity:1" fill="#f8f8f8" d="M 95.5,115.5 C 93.815,126.344 92.6483,137.344 92,148.5C 94.2837,137.694 95.7837,126.694 96.5,115.5C 96.2011,113.396 96.5344,111.396 97.5,109.5C 99.444,110.189 101.444,110.689 103.5,111C 102.62,112.356 102.286,113.856 102.5,115.5C 99.2249,126.272 96.7249,137.272 95,148.5C 98.1467,137.913 100.98,127.246 103.5,116.5C 103.171,112.001 105.004,109.001 109,107.5C 110.982,107.99 112.649,108.99 114,110.5C 114.213,115.032 113.547,119.365 112,123.5C 112.583,121.998 113.416,120.665 114.5,119.5C 115.622,120.63 116.956,121.297 118.5,121.5C 118.611,122.117 118.944,122.617 119.5,123C 114,131.167 108.5,139.333 103,147.5C 102.018,148.759 101.685,150.092 102,151.5C 108.51,141.805 115.01,132.138 121.5,122.5C 123.524,120.119 125.857,119.952 128.5,122C 130.85,124.373 131.017,126.873 129,129.5C 121.364,136.135 114.03,143.135 107,150.5C 106.782,153.426 106.282,156.26 105.5,159C 100.028,159.203 94.861,160.369 90,162.5C 85.139,160.369 79.9723,159.203 74.5,159C 73.7178,156.26 73.2178,153.426 73,150.5C 64.7345,142.572 56.9011,134.405 49.5,126C 50.9845,121.089 53.9845,119.756 58.5,122C 59.1634,123.518 60.1634,124.685 61.5,125.5C 61.5858,124.504 61.2524,123.671 60.5,123C 62.1667,121.833 63.8333,120.667 65.5,119.5C 66.919,121.336 68.0857,123.336 69,125.5C 68.1786,121.489 67.0119,117.489 65.5,113.5C 66.8863,107.889 70.053,106.556 75,109.5C 75.4828,110.448 75.6495,111.448 75.5,112.5C 78.3601,124.608 81.5267,136.608 85,148.5C 82.9417,135.937 80.1083,123.604 76.5,111.5C 81.6195,107.599 83.9528,108.933 83.5,115.5C 84.3477,126.675 85.8477,137.675 88,148.5C 87.4174,137.004 86.2507,125.671 84.5,114.5C 84.335,111.15 84.5017,107.817 85,104.5C 88.3333,101.833 91.6667,101.833 95,104.5C 95.4986,108.152 95.6653,111.818 95.5,115.5 Z"/></g>
<g><path style="opacity:1" fill="#fdfdfd" d="M -0.5,116.5 C 6.47657,157.81 30.4766,182.81 71.5,191.5C 47.5,191.5 23.5,191.5 -0.5,191.5C -0.5,166.5 -0.5,141.5 -0.5,116.5 Z"/></g>
<g><path style="opacity:1" fill="#fdfdfd" d="M 165.5,118.5 C 165.5,142.833 165.5,167.167 165.5,191.5C 141.167,191.5 116.833,191.5 92.5,191.5C 133.163,183.504 157.496,159.171 165.5,118.5 Z"/></g>
<g><path style="opacity:1" fill="#242222" d="M 61.5,125.5 C 62.9063,125.973 63.573,126.973 63.5,128.5C 62.0937,128.027 61.427,127.027 61.5,125.5 Z"/></g>
<g><path style="opacity:1" fill="#3c3a38" d="M 76.5,111.5 C 80.1083,123.604 82.9417,135.937 85,148.5C 81.5267,136.608 78.3601,124.608 75.5,112.5C 76.1667,112.5 76.5,112.167 76.5,111.5 Z"/></g>
<g><path style="opacity:1" fill="#383635" d="M 102.5,115.5 C 102.5,116.167 102.833,116.5 103.5,116.5C 100.98,127.246 98.1467,137.913 95,148.5C 96.7249,137.272 99.2249,126.272 102.5,115.5 Z"/></g>
<g><path style="opacity:1" fill="#4a4846" d="M 95.5,115.5 C 95.8333,115.5 96.1667,115.5 96.5,115.5C 95.7837,126.694 94.2837,137.694 92,148.5C 92.6483,137.344 93.815,126.344 95.5,115.5 Z"/></g>
<g><path style="opacity:1" fill="#252423" d="M 63.5,128.5 C 64.9063,128.973 65.573,129.973 65.5,131.5C 64.0937,131.027 63.427,130.027 63.5,128.5 Z"/></g>
<g><path style="opacity:1" fill="#3f3d3c" d="M 84.5,114.5 C 86.2507,125.671 87.4174,137.004 88,148.5C 85.8477,137.675 84.3477,126.675 83.5,115.5C 84.1667,115.5 84.5,115.167 84.5,114.5 Z"/></g>
<g><path style="opacity:1" fill="#242222" d="M 65.5,131.5 C 66.9063,131.973 67.573,132.973 67.5,134.5C 66.0937,134.027 65.427,133.027 65.5,131.5 Z"/></g>
<g><path style="opacity:1" fill="#2f2d2b" d="M 108.5,127.5 C 109.573,128.251 109.74,129.251 109,130.5C 107.333,133.833 105.667,137.167 104,140.5C 104.883,136.043 106.383,131.71 108.5,127.5 Z"/></g>
<g><path style="opacity:1" fill="#252423" d="M 67.5,134.5 C 68.9063,134.973 69.573,135.973 69.5,137.5C 68.0937,137.027 67.427,136.027 67.5,134.5 Z"/></g>
<g><path style="opacity:1" fill="#302e2c" d="M 71.5,129.5 C 74.4491,133.394 76.2824,137.727 77,142.5C 74.5965,138.365 72.7632,134.032 71.5,129.5 Z"/></g>
<g><path style="opacity:1" fill="#242222" d="M 69.5,137.5 C 70.9063,137.973 71.573,138.973 71.5,140.5C 70.0937,140.027 69.427,139.027 69.5,137.5 Z"/></g>
<g><path style="opacity:1" fill="#333130" d="M 118.5,121.5 C 119.609,121.557 120.609,121.89 121.5,122.5C 115.01,132.138 108.51,141.805 102,151.5C 101.685,150.092 102.018,148.759 103,147.5C 108.5,139.333 114,131.167 119.5,123C 118.944,122.617 118.611,122.117 118.5,121.5 Z"/></g>
<g><path style="opacity:1" fill="#252423" d="M 71.5,140.5 C 72.9063,140.973 73.573,141.973 73.5,143.5C 72.0937,143.027 71.427,142.027 71.5,140.5 Z"/></g>
<g><path style="opacity:1" fill="#242222" d="M 73.5,143.5 C 74.9063,143.973 75.573,144.973 75.5,146.5C 74.0937,146.027 73.427,145.027 73.5,143.5 Z"/></g>
<g><path style="opacity:1" fill="#2b2928" d="M 78.5,144.5 C 80.1747,146.179 81.008,148.179 81,150.5C 79.3375,148.842 78.5041,146.842 78.5,144.5 Z"/></g>
<g><path style="opacity:1" fill="#252423" d="M 75.5,146.5 C 76.9063,146.973 77.573,147.973 77.5,149.5C 76.0937,149.027 75.427,148.027 75.5,146.5 Z"/></g>
<g><path style="opacity:1" fill="#343230" d="M 101.5,142.5 C 102.27,145.383 101.437,148.05 99,150.5C 99.4911,147.819 100.324,145.153 101.5,142.5 Z"/></g>
<g><path style="opacity:1" fill="#2f2e2c" d="M 77.5,149.5 C 78.2891,149.783 78.9558,150.283 79.5,151C 78.184,151.528 77.5173,151.028 77.5,149.5 Z"/></g>
</svg>

<svg xmlns="http://www.w3.org/2000/svg" width="166" height="192" style="shape-rendering:geometricPrecision;text-rendering:geometricPrecision;image-rendering:optimizeQuality;fill-rule:evenodd;clip-rule:evenodd"><path style="opacity:1" fill="#040304" d="M-.5-.5h166v119c-8.004 40.671-32.337 65.004-73 73h-21c-41.023-8.69-65.023-33.69-72-75V-.5z"/><path style="opacity:1" fill="#263166" d="M128.5 22.5c-.344 14.525-6.344 26.025-18 34.5a48.752 48.752 0 0 1-15 6c-19.4.056-38.067 3.723-56 11-14.985 8.817-26.319 20.984-34 36.5-1.994-35.318-2.66-70.984-2-107h126c-.4 6.329-.733 12.662-1 19z"/><path style="opacity:1" fill="#fdfdfd" d="M5.5 110.5c7.681-15.516 19.015-27.683 34-36.5 17.933-7.277 36.6-10.944 56-11a48.752 48.752 0 0 0 15-6c11.656-8.475 17.656-19.975 18-34.5 1.677-6.084 2.344-12.418 2-19h31c.636 24.803-5.864 47.47-19.5 68-11.386 12.474-25.553 19.641-42.5 21.5-46.545-1.112-72.045 21.388-76.5 67.5-12.966-14.406-18.8-31.073-17.5-50z"/><path style="opacity:1" fill="#f8f8f8" d="M95.5 115.5a345.252 345.252 0 0 0-3.5 33 230.607 230.607 0 0 0 4.5-33 9.864 9.864 0 0 1 1-6 32.444 32.444 0 0 0 6 1.5c-.88 1.356-1.214 2.856-1 4.5a237.015 237.015 0 0 0-7.5 33 565.331 565.331 0 0 0 8.5-32c-.329-4.499 1.504-7.499 5.5-9 1.982.49 3.649 1.49 5 3 .213 4.532-.453 8.865-2 13a12.403 12.403 0 0 1 2.5-4c1.122 1.13 2.456 1.797 4 2 .111.617.444 1.117 1 1.5L103 147.5c-.982 1.259-1.315 2.592-1 4 6.51-9.695 13.01-19.362 19.5-29 2.024-2.381 4.357-2.548 7-.5 2.35 2.373 2.517 4.873.5 7.5a325.946 325.946 0 0 0-22 21 42.36 42.36 0 0 1-1.5 8.5c-5.472.203-10.639 1.369-15.5 3.5-4.861-2.131-10.028-3.297-15.5-3.5a42.332 42.332 0 0 1-1.5-8.5A402.851 402.851 0 0 1 49.5 126c1.484-4.911 4.484-6.244 9-4 .663 1.518 1.663 2.685 3 3.5.086-.996-.248-1.829-1-2.5l5-3.5a26.864 26.864 0 0 1 3.5 6 77.965 77.965 0 0 0-3.5-12c1.386-5.611 4.553-6.944 9.5-4 .483.948.65 1.948.5 3a713.194 713.194 0 0 0 9.5 36 298.065 298.065 0 0 0-8.5-37c5.12-3.901 7.453-2.567 7 4a276.195 276.195 0 0 0 4.5 33 326.024 326.024 0 0 0-3.5-34c-.165-3.35.002-6.683.5-10 3.333-2.667 6.667-2.667 10 0a60.94 60.94 0 0 1 .5 11z"/><path style="opacity:1" fill="#fdfdfd" d="M-.5 116.5c6.977 41.31 30.977 66.31 72 75h-72v-75zM165.5 118.5v73h-73c40.663-7.996 64.996-32.329 73-73z"/><path style="opacity:1" fill="#242222" d="M61.5 125.5c1.406.473 2.073 1.473 2 3-1.406-.473-2.073-1.473-2-3z"/><path style="opacity:1" fill="#3c3a38" d="M76.5 111.5a298.065 298.065 0 0 1 8.5 37 713.194 713.194 0 0 1-9.5-36c.667 0 1-.333 1-1z"/><path style="opacity:1" fill="#383635" d="M102.5 115.5c0 .667.333 1 1 1a565.331 565.331 0 0 1-8.5 32 237.015 237.015 0 0 1 7.5-33z"/><path style="opacity:1" fill="#4a4846" d="M95.5 115.5h1a230.607 230.607 0 0 1-4.5 33 345.252 345.252 0 0 1 3.5-33z"/><path style="opacity:1" fill="#252423" d="M63.5 128.5c1.406.473 2.073 1.473 2 3-1.406-.473-2.073-1.473-2-3z"/><path style="opacity:1" fill="#3f3d3c" d="M84.5 114.5a326.024 326.024 0 0 1 3.5 34 276.195 276.195 0 0 1-4.5-33c.667 0 1-.333 1-1z"/><path style="opacity:1" fill="#242222" d="M65.5 131.5c1.406.473 2.073 1.473 2 3-1.406-.473-2.073-1.473-2-3z"/><path style="opacity:1" fill="#2f2d2b" d="M108.5 127.5c1.073.751 1.24 1.751.5 3l-5 10c.883-4.457 2.383-8.79 4.5-13z"/><path style="opacity:1" fill="#252423" d="M67.5 134.5c1.406.473 2.073 1.473 2 3-1.406-.473-2.073-1.473-2-3z"/><path style="opacity:1" fill="#302e2c" d="M71.5 129.5c2.95 3.894 4.782 8.227 5.5 13a55.349 55.349 0 0 1-5.5-13z"/><path style="opacity:1" fill="#242222" d="M69.5 137.5c1.406.473 2.073 1.473 2 3-1.406-.473-2.073-1.473-2-3z"/><path style="opacity:1" fill="#333130" d="M118.5 121.5a5.727 5.727 0 0 1 3 1 26765.89 26765.89 0 0 0-19.5 29c-.315-1.408.018-2.741 1-4l16.5-24.5c-.556-.383-.889-.883-1-1.5z"/><path style="opacity:1" fill="#252423" d="M71.5 140.5c1.406.473 2.073 1.473 2 3-1.406-.473-2.073-1.473-2-3z"/><path style="opacity:1" fill="#242222" d="M73.5 143.5c1.406.473 2.073 1.473 2 3-1.406-.473-2.073-1.473-2-3z"/><path style="opacity:1" fill="#2b2928" d="M78.5 144.5c1.675 1.679 2.508 3.679 2.5 6-1.662-1.658-2.496-3.658-2.5-6z"/><path style="opacity:1" fill="#252423" d="M75.5 146.5c1.406.473 2.073 1.473 2 3-1.406-.473-2.073-1.473-2-3z"/><path style="opacity:1" fill="#343230" d="M101.5 142.5c.77 2.883-.063 5.55-2.5 8 .491-2.681 1.324-5.347 2.5-8z"/><path style="opacity:1" fill="#2f2e2c" d="M77.5 149.5c.79.283 1.456.783 2 1.5-1.316.528-1.983.028-2-1.5z"/></svg>
